X: 1
T: Frank Quinn's
M: 4/4
L: 1/8
R: reel
K: Gmaj
AG|FDDCA,2DE|FGAB c2cB|ADDF FDFG|ABAF G2GG|
FDDC A,2DE|FGAB cdeg|f2eg fddB|ABAF G2:|
FG|Adde fdec|AB{c}BA dcAG|Adde fdec|AB{c}BA defg|
af{g}fe fdec|dfed cAGE|DGG{A}G Adeg|fdcA G2:|
